X: 1529
T: O Gece Gizlice
C: Ömer Sami Güpgüp
O: Turkey
F: http://compmusic.upf.edu/node/140
N: segah--sarki--duyek--o_gece--omer_sami_gupgup
N: makam= segah
N: form= sarki
N: usul= duyek = 8/4
M: 8/4
L: 1/16
K: C _1/4B _1/4e ^f 
Q: 1/4=168
%%MIDI tuningsystem comma53
z2 B2 B2 B2 d4 c2 c2  | d4 d2 e2 c2 B6  | \
w:  O  ge ce  giz li ce   |  kal bi mi  ça lan    | 
f4 f2 f2 ff3 f4  | e4 f2 g2 e2 d6  | 
w:  Ru hu mu  şi fa sız   |  dert le re  sa lan    | 
g2 g4 f2 e2 d2 d2 z2  | d2 c2 B4 d2 c6  | \
w:  Se ven  yü re ği mi   |  ko pa rıp  a lan    | 
g4 g_7/8b3 a4 g4  | z2 g4 f2 e4 g2 f2  | 
w:  Sen  de ğil  miy din   |  söy le  sev gi li    | 
g4 gf3 e4 d4  | z2 d4 B2 c4 ^A2 B2  | \
w:  Sen  de ğil  miy din   |  söy le  sev gi li    | 
z2 d2 e2 f2 g2 f2 g4  | g4 g_7/8b3 a4 g4  | 
w:  SAZ  |  Sen  de ğil  miy din   | 
z2 g4 f2 e4 g2 f2  | g4 gf3 e4 d4  | \
w:  söy le  sev gi li    |  Sen  de ğil  miy din   | 
z2 d4 B2 c4 ^A2 B2  | z2 d2 d2 c2 B2 A2 B4  | 
w:  söy le  sev gi li    |  SAZ  | 
g4 g_7/8b3 a4 g4  | z2 g4 f2 e4 g2 f2  | \
w:  ARANAĞME  |   | 
g4 gf3 e4 d4  | z2 d4 B2 c4 ^A2 B2  | 
w:   |   | 
z2 d2 e2 f2 g2 f2 g4  | g4 g_7/8b3 a4 g4  | \
w:   |  ARANAĞME  | 
z2 g4 f2 e4 g2 f2  | g4 gf3 e4 d4  | 
w:   |   | 
z2 d4 B2 c4 ^A2 B2  | z2 d2 d2 c2 B2 A2 B4  | \
w:   |   | 
B2 B4 B2 d4 c2 c2  | d2 d2 e4 c2 B6  | 
w:  Yıl lar ca  gön lü me   |  ka pı lar  a çan    | 
ff3 f3f f4 f4  | e3f g4 e2 d6  | g2 g2 g4 f3e d4  | \
w:  Gü zel  göz le rin den   |  sev gi ler  sa çan    |  Be ni  Mec nun  e dip   | 
d2 c2 B4 d2 c6  | 
w:  bı ra kıp  ka çan    | 
g4 g_7/8b3 a4 g4  | z2 g4 f2 e4 g2 f2  | \
w:  Sen  de ğil  miy din   |  söy le  sev gi li    | 
g4 gf3 e4 d4  | z2 d4 B2 c4 ^A2 B2  | 
w:  Sen  de ğil  miy din   |  söy le  sev gi li    | 
z2 d2 e2 f2 g2 f2 g4  | g4 g_7/8b3 a4 g4  | \
w:  SAZ  |  Sen  de ğil  miy din   | 
z2 g4 f2 e4 g2 f2  | g4 gf3 e4 d4  | 
w:  söy le  sev gi li    |  Sen  de ğil  miy din   | 
z2 d4 B2 c4 ^A2 B2  | z2 d2 d2 c2 B2 A2 B4  | |


